X: 1
T: P.Joe's Pecurious Pachelbel Special
M: 4/4
L: 1/8
R: reel
K: Dmaj
S: Martin Hayes, Live in Seattle
N: Originally played in the key of C
|d3 c def^g|^gaag afed|BAB  (d d)cdB|A3 A2 FDF|
|G3 B2 ABc|dcde faba|gfed Bdc/d/e|fdd/d/c dABc|
|d2 dc defa|a^gab afed|B3 c dcdB|A3 A2 FDF|
|GB,GA BGBd|dcde faba|gfed Bdce|fddc dfag||
|:f/g/ada fada|eaca eaca|dfBf dfBf|AdFd AdFd|
|G3 B2 ABd|dcde faba|gfed Bdce|1 fddc dfag:|2 fddc dABc||
